X: 8
T: The Castle
R: jig
M: 6/8
L: 1/8
K: Amin
B|:cBA BAG|AGE DB,G,|A,2,A, EDB,|DEG AGE|
cBA BAG|AGE DB,G,|~A,3 EGE|DB,G, A,2B:|
|:cBA a2a|bag edB|GBd g2g|GBd cBA|
cBc dcd|ede gab|age dBG|1E^FG A2B:|2E^FG A2|


Tune 273	Setting 25649

